_site/images/features-page/circle-feather.svg

<svg fill="none" height="42" viewBox="0 0 42 42" width="42" xmlns="http://www.w3.org/2000/svg"><circle cx="21" cy="21" fill="#9aabbf" fill-opacity=".25" r="21"/><g fill="#6782a3" opacity=".75"><path clip-rule="evenodd" d="m30.9363 11.2845c.0342.0782.0579.2257.0576.2261.1508 2.4811-2.5593 6.7688-2.9286 7.3391-.34.5254-.9519.5634-1.9186.5634-.2812 0-.5913-.0057-.9038-.0117.3727.3151.6498.665.6891 1.1299.0307.3641-.1011.7103-.3715.9747-5.7017 5.5803-9.9774 6.0142-11.1519 6.0142-.2815 0-.4281-.0222-.4281-.0222-.006-.001-.0115-.0036-.017-.0062-.0053-.0025-.0106-.005-.0163-.0061-.374.7302-.7258 1.4687-1.0342 2.2201-.0754.1827-.2524.2942-.4386.2942-.0602 0-.1213-.0114-.1802-.0355-.2423-.1-.3582-.3774-.2584-.6206 3.2335-7.8756 10.0654-14.7186 18.276-18.3042.242-.1049.5206.0054.6245.2448zm-4.7893 7.1782c.5937 0 1.0551-.026 1.1226-.1301 1.5247-2.3545 2.5371-4.6754 2.7509-6.1102-6.5843 3.0518-12.1935 8.2448-15.5869 14.3468 1.121-.0054 5.0522-.4459 10.4641-5.7429.3242-.3172-.2852-.7392-.8915-1.159-.575-.3982-1.1472-.7944-.917-1.0973.0807-.1063.5573-.1326 1.1621-.1326.2972 0 .6253.0063.9526.0127.3256.0063.6504.0126.9431.0126z" fill-rule="evenodd"/><path d="m30.9939 11.5106-.1861-.1669-.0697.0778.0063.1042zm-.0576-.2261-.2293.0995.0002.0005zm-2.871 7.5652-.2098-.1358zm-2.8224.5517.0048-.25-.7037-.0135.5375.4544zm.6891 1.1299.2491-.021v-.0001zm-.3715.9747-.1748-.1788-.0001.0001zm-11.58 5.992-.0399.2468.0025.0004zm-.017-.0062-.1081.2254.0003.0002zm-.0163-.0061.0468-.2456-.1839-.0351-.0854.1667zm-1.0342 2.2201.2311.0954.0001-.0004zm-.6188.2587-.0954.2311.0009.0004zm-.2584-.6206-.2313-.095v.0001zm18.276-18.3042-.0994-.2294-.0006.0003zm-3.0422 7.2929.2098.1359zm2.7509-6.1102.2472.0368.0683-.4586-.4207.195zm-15.5869 14.3468-.2185-.1215-.2077.3735.4274-.002zm10.4641-5.7429-.1748-.1787-.0001.0001zm-.8915-1.159-.1423.2055zm-.917-1.0973.199.1513.0001-.0001zm2.1147-.1199.0049-.25zm5.9762-6.7727c.026-.0345.0525-.0923.0578-.112.0022-.0111.0047-.0293.0054-.0363.0009-.0128.0006-.0228.0005-.026-.0002-.0079-.0008-.0141-.0009-.0157-.0004-.0045-.0009-.008-.001-.009-.0004-.0028-.0007-.0052-.0009-.0063-.0004-.0027-.0009-.0056-.0013-.0084-.0009-.0057-.0022-.0132-.0038-.0219-.0031-.0175-.0077-.0414-.0136-.0683-.0105-.0482-.0291-.1256-.0569-.1891l-.4582.2001c.0021.0049.0065.0167.012.0363.0053.0185.0102.0391.0146.0591.0043.0199.0077.0378.01.0505.0012.0063.002.0111.0024.0138.0003.0014.0003.0018.0002.0013 0 0-.0002-.0015-.0005-.0037-.0001-.0007-.0005-.004-.0009-.0084-.0001-.0015-.0007-.0076-.0009-.0155-.0001-.0031-.0004-.0131.0005-.0259.0007-.007.0032-.0252.0054-.0363.0053-.0197.0318-.0774.0578-.112zm-2.9049 7.3082c.1872-.2892.9632-1.5134 1.6744-2.9798.3556-.7332.6972-1.5316.9408-2.3071.2425-.772.3935-1.5389.3531-2.2033l-.4991.0303c.035.5762-.0962 1.2757-.331 2.0232-.2338.7441-.5644 1.5186-.9137 2.2387-.6985 1.4402-1.4622 2.6451-1.6442 2.9263zm-2.1285.6775c.4788 0 .9027-.0084 1.2521-.0915.3632-.0863.6635-.2571.8764-.586l-.4197-.2717c-.1272.1964-.3028.3073-.5723.3713-.2832.0673-.6486.0779-1.1365.0779zm-.9086-.0118c.3121.006.6246.0118.9086.0118v-.5c-.2784 0-.5861-.0057-.899-.0117zm.943.8589c-.0476-.5629-.3849-.9685-.7768-1.2998l-.3228.3819c.3536.2989.5704.5932.6014.96zm-.4458 1.1745c.3217-.3145.483-.7331.4458-1.1744l-.4982.0419c.0241.2871-.0781.5608-.2972.775zm-11.3267 6.0855c1.243 0 5.5806-.4617 11.3268-6.0856l-.3498-.3573c-5.6571 5.5368-9.8709 5.9429-10.977 5.9429zm-.4281-.2722c-.0374.2472-.0373.2472-.0373.2472h.0001s.0001 0 .0001.0001h.0004c.0002 0 .0005.0001.0008.0001.0007.0001.0015.0002.0024.0004.0019.0002.0044.0006.0074.001.006.0008.0144.0018.0249.0031.0212.0024.0514.0054.0905.0085.078.006.1915.0118.3388.0118v-.5c-.1342 0-.2348-.0053-.3004-.0104-.0328-.0025-.0569-.005-.072-.0067-.0075-.0009-.0129-.0015-.0159-.002-.0016-.0002-.0026-.0003-.003-.0004-.0002 0-.0002 0-.0001 0 0 0 .0001 0 .0002.0001h.0002.0001.0001s0 0-.0373.2472zm-.1248.2194c.0014.0006.0121.0059.0246.0108.0135.0053.0343.0124.0603.0166l.0797-.4936c.02.0032.0351.0086.043.0117.0068.0027.0121.0053.0079.0033zm.0447.0138c-.0178-.0034-.0311-.0082-.0381-.011-.0061-.0025-.0107-.0048-.0069-.003l.2161-.4509c-.0003-.0001-.0346-.018-.0775-.0262zm-.7562 2.0696c.305-.7431.6536-1.475 1.0255-2.2012l-.445-.2279c-.3761.7343-.7312 1.4794-1.043 2.2392zm-.6698.4492c.2846 0 .5546-.1699.6697-.4488l-.4622-.1907c-.0357.0865-.1197.1395-.2075.1395zm-.2747-.054c.0895.0365.1827.054.2747.054v-.5c-.0284 0-.0574-.0054-.0857-.0169zm-.3952-.947c-.152.3707.0246.7939.3943.9466l.1908-.4621c-.1148-.0475-.17-.179-.1225-.2948zm18.4073-18.4384c-8.2667 3.6101-15.1477 10.4993-18.4073 18.4383l.4626.1899c3.2075-7.8121 9.9902-14.6088 18.1448-18.17zm.9539.3743c-.1592-.3667-.5854-.534-.9533-.3746l.1988.4588c.1161-.0503.2472.0028.2958.1149zm-4.106 7.0118c.0127-.0196.026-.0321.0344-.039s.0144-.0101.0155-.0107c.0014-.0007-.0058.0031-.0268.0088-.0419.0116-.1082.0229-.2017.0321-.1851.0183-.4386.0248-.7341.0248v.5c.2982 0 .5723-.0064.7831-.0272.1046-.0103.2034-.025.2855-.0476.0411-.0113.0856-.0267.1274-.0487.0394-.0208.0955-.0575.1364-.1207zm2.7135-6.0111c-.2059 1.3824-1.1958 3.6676-2.7135 6.0111l.4197.2718c1.5319-2.3654 2.5668-4.7221 2.7883-6.2093zm-15.1211 14.5051c3.3671-6.0546 8.936-11.2114 15.4735-14.2415l-.2103-.4536c-6.6309 3.0734-12.2804 8.3028-15.7002 14.4521zm10.0707-6.043c-5.3697 5.2556-9.24 5.6664-10.2904 5.6715l.0024.5c1.1916-.0058 5.1836-.4759 10.6378-5.8142zm-.8589-.7749c.3114.2156.5899.41.7557.5846.0839.0884.1115.1443.1173.1694 0 .0003.0088-.0015-.014.0208l.3496.3574c.1393-.1363.1935-.3098.1515-.491-.0362-.1564-.1382-.2917-.2418-.4009-.2095-.2206-.5388-.4472-.8337-.6513zm-.9738-1.454c-.1144.1506-.1261.3221-.0714.4775.0488.1385.1478.2607.25.3632.2058.2064.5146.4191.7952.6133l.2846-.411c-.2944-.2039-.5592-.3884-.7257-.5554-.084-.0842-.1207-.1427-.1325-.1761-.0058-.0165-.0027-.0081-.0021-.009zm1.3612-.2314c-.3038 0-.5842.0065-.8017.0276-.108.0105-.2095.0253-.2941.0478-.0424.0113-.0872.0262-.1292.0471-.0398.0198-.0937.053-.1363.109l.3983.3023c-.0223.0294-.0437.0385-.0396.0365.0019-.0009.0123-.0055.0354-.0117.0463-.0123.1169-.024.2138-.0334.1922-.0186.4525-.0252.7534-.0252zm.9575.0127c-.3267-.0063-.6574-.0127-.9575-.0127v.5c.2943 0 .6199.0063.9478.0127zm.9382.0126c-.2898 0-.612-.0062-.9382-.0126l-.0097.5c.325.0063.6523.0126.9479.0126z"/></g></svg>

<svg width="42" height="42" viewBox="0 0 42 42" fill="none" xmlns="http://www.w3.org/2000/svg">
<circle cx="21" cy="21" r="21" fill="#9AABBF" fill-opacity="0.25"/>
<g opacity="0.75">
<path fill-rule="evenodd" clip-rule="evenodd" d="M30.9363 11.2845C30.9705 11.3627 30.9942 11.5102 30.9939 11.5106C31.1447 13.9917 28.4346 18.2794 28.0653 18.8497C27.7253 19.3751 27.1134 19.4131 26.1467 19.4131C25.8655 19.4131 25.5554 19.4074 25.2429 19.4014C25.6156 19.7165 25.8927 20.0664 25.932 20.5313C25.9627 20.8954 25.8309 21.2416 25.5605 21.506C19.8588 27.0863 15.5831 27.5202 14.4086 27.5202C14.1271 27.5202 13.9805 27.498 13.9805 27.498C13.9745 27.497 13.969 27.4944 13.9635 27.4918C13.9582 27.4893 13.9529 27.4868 13.9472 27.4857C13.5732 28.2159 13.2214 28.9544 12.913 29.7058C12.8376 29.8885 12.6606 30 12.4744 30C12.4142 30 12.3531 29.9886 12.2942 29.9645C12.0519 29.8645 11.936 29.5871 12.0358 29.3439C15.2693 21.4683 22.1012 14.6253 30.3118 11.0397C30.5538 10.9348 30.8324 11.0451 30.9363 11.2845ZM26.147 18.4627C26.7407 18.4627 27.2021 18.4367 27.2696 18.3326C28.7943 15.9781 29.8067 13.6572 30.0205 12.2224C23.4362 15.2742 17.827 20.4672 14.4336 26.5692C15.5546 26.5638 19.4858 26.1233 24.8977 20.8263C25.2219 20.5091 24.6125 20.0871 24.0062 19.6673C23.4312 19.2691 22.859 18.8729 23.0892 18.57C23.1699 18.4637 23.6465 18.4374 24.2513 18.4374C24.5485 18.4374 24.8766 18.4437 25.2039 18.4501C25.5295 18.4564 25.8543 18.4627 26.147 18.4627Z" fill="#6782A3"/>
<path d="M30.9939 11.5106L30.8078 11.3437L30.7381 11.4215L30.7444 11.5257L30.9939 11.5106ZM30.9363 11.2845L30.707 11.384L30.7072 11.3845L30.9363 11.2845ZM28.0653 18.8497L27.8555 18.7139L27.8555 18.7139L28.0653 18.8497ZM25.2429 19.4014L25.2477 19.1514L24.544 19.1379L25.0815 19.5923L25.2429 19.4014ZM25.932 20.5313L26.1811 20.5103L26.1811 20.5102L25.932 20.5313ZM25.5605 21.506L25.3857 21.3272L25.3856 21.3273L25.5605 21.506ZM13.9805 27.498L13.9406 27.7448L13.9431 27.7452L13.9805 27.498ZM13.9635 27.4918L13.8554 27.7172L13.8557 27.7174L13.9635 27.4918ZM13.9472 27.4857L13.994 27.2401L13.8101 27.205L13.7247 27.3717L13.9472 27.4857ZM12.913 29.7058L13.1441 29.8012L13.1442 29.8008L12.913 29.7058ZM12.2942 29.9645L12.1988 30.1956L12.1997 30.196L12.2942 29.9645ZM12.0358 29.3439L11.8045 29.2489L11.8045 29.249L12.0358 29.3439ZM30.3118 11.0397L30.2124 10.8103L30.2118 10.8106L30.3118 11.0397ZM27.2696 18.3326L27.4794 18.4685L27.4794 18.4685L27.2696 18.3326ZM30.0205 12.2224L30.2677 12.2592L30.336 11.8006L29.9153 11.9956L30.0205 12.2224ZM14.4336 26.5692L14.2151 26.4477L14.0074 26.8212L14.4348 26.8192L14.4336 26.5692ZM24.8977 20.8263L24.7229 20.6476L24.7228 20.6477L24.8977 20.8263ZM24.0062 19.6673L23.8639 19.8728L24.0062 19.6673ZM23.0892 18.57L23.2882 18.7213L23.2883 18.7212L23.0892 18.57ZM25.2039 18.4501L25.2088 18.2001L25.2088 18.2001L25.2039 18.4501ZM31.1801 11.6774C31.2061 11.6429 31.2326 11.5851 31.2379 11.5654C31.2401 11.5543 31.2426 11.5361 31.2433 11.5291C31.2442 11.5163 31.2439 11.5063 31.2438 11.5031C31.2436 11.4952 31.243 11.489 31.2429 11.4874C31.2425 11.4829 31.242 11.4794 31.2419 11.4784C31.2415 11.4756 31.2412 11.4732 31.241 11.4721C31.2406 11.4694 31.2401 11.4665 31.2397 11.4637C31.2388 11.458 31.2375 11.4505 31.2359 11.4418C31.2328 11.4243 31.2282 11.4004 31.2223 11.3735C31.2118 11.3253 31.1932 11.2479 31.1654 11.1844L30.7072 11.3845C30.7093 11.3894 30.7137 11.4012 30.7192 11.4208C30.7245 11.4393 30.7294 11.4599 30.7338 11.4799C30.7381 11.4998 30.7415 11.5177 30.7438 11.5304C30.745 11.5367 30.7458 11.5415 30.7462 11.5442C30.7465 11.5456 30.7465 11.546 30.7464 11.5455C30.7464 11.5455 30.7462 11.544 30.7459 11.5418C30.7458 11.5411 30.7454 11.5378 30.745 11.5334C30.7449 11.5319 30.7443 11.5258 30.7441 11.5179C30.744 11.5148 30.7437 11.5048 30.7446 11.492C30.7453 11.485 30.7478 11.4668 30.75 11.4557C30.7553 11.436 30.7818 11.3783 30.8078 11.3437L31.1801 11.6774ZM28.2752 18.9856C28.4624 18.6964 29.2384 17.4722 29.9496 16.0058C30.3052 15.2726 30.6468 14.4742 30.8904 13.6987C31.1329 12.9267 31.2839 12.1598 31.2435 11.4954L30.7444 11.5257C30.7794 12.1019 30.6482 12.8014 30.4134 13.5489C30.1796 14.293 29.849 15.0675 29.4997 15.7876C28.8012 17.2278 28.0375 18.4327 27.8555 18.7139L28.2752 18.9856ZM26.1467 19.6631C26.6255 19.6631 27.0494 19.6547 27.3988 19.5716C27.762 19.4853 28.0623 19.3145 28.2752 18.9856L27.8555 18.7139C27.7283 18.9103 27.5527 19.0212 27.2832 19.0852C27 19.1525 26.6346 19.1631 26.1467 19.1631V19.6631ZM25.2381 19.6513C25.5502 19.6573 25.8627 19.6631 26.1467 19.6631V19.1631C25.8683 19.1631 25.5606 19.1574 25.2477 19.1514L25.2381 19.6513ZM26.1811 20.5102C26.1335 19.9473 25.7962 19.5417 25.4043 19.2104L25.0815 19.5923C25.4351 19.8912 25.6519 20.1855 25.6829 20.5523L26.1811 20.5102ZM25.7353 21.6847C26.057 21.3702 26.2183 20.9516 26.1811 20.5103L25.6829 20.5522C25.707 20.8393 25.6048 21.113 25.3857 21.3272L25.7353 21.6847ZM14.4086 27.7702C15.6516 27.7702 19.9892 27.3085 25.7354 21.6846L25.3856 21.3273C19.7285 26.8641 15.5147 27.2702 14.4086 27.2702V27.7702ZM13.9805 27.498C13.9431 27.7452 13.9432 27.7452 13.9432 27.7452C13.9432 27.7452 13.9432 27.7452 13.9433 27.7452C13.9433 27.7452 13.9434 27.7452 13.9434 27.7453C13.9435 27.7453 13.9436 27.7453 13.9438 27.7453C13.944 27.7453 13.9443 27.7454 13.9446 27.7454C13.9453 27.7455 13.9461 27.7456 13.947 27.7458C13.9489 27.746 13.9514 27.7464 13.9544 27.7468C13.9604 27.7476 13.9688 27.7486 13.9793 27.7499C14.0005 27.7523 14.0307 27.7553 14.0698 27.7584C14.1478 27.7644 14.2613 27.7702 14.4086 27.7702V27.2702C14.2744 27.2702 14.1738 27.2649 14.1082 27.2598C14.0754 27.2573 14.0513 27.2548 14.0362 27.2531C14.0287 27.2522 14.0233 27.2516 14.0203 27.2511C14.0187 27.2509 14.0177 27.2508 14.0173 27.2507C14.0171 27.2507 14.0171 27.2507 14.0172 27.2507C14.0172 27.2507 14.0173 27.2507 14.0174 27.2508C14.0174 27.2508 14.0175 27.2508 14.0176 27.2508C14.0176 27.2508 14.0177 27.2508 14.0177 27.2508C14.0177 27.2508 14.0177 27.2508 14.0178 27.2508C14.0178 27.2508 14.0178 27.2508 13.9805 27.498ZM13.8557 27.7174C13.8571 27.718 13.8678 27.7233 13.8803 27.7282C13.8938 27.7335 13.9146 27.7406 13.9406 27.7448L14.0203 27.2512C14.0403 27.2544 14.0554 27.2598 14.0633 27.2629C14.0701 27.2656 14.0754 27.2682 14.0712 27.2662L13.8557 27.7174ZM13.9004 27.7312C13.8826 27.7278 13.8693 27.723 13.8623 27.7202C13.8562 27.7177 13.8516 27.7154 13.8554 27.7172L14.0715 27.2663C14.0712 27.2662 14.0369 27.2483 13.994 27.2401L13.9004 27.7312ZM13.1442 29.8008C13.4492 29.0577 13.7978 28.3258 14.1697 27.5996L13.7247 27.3717C13.3486 28.106 12.9935 28.8511 12.6817 29.6109L13.1442 29.8008ZM12.4744 30.25C12.759 30.25 13.029 30.0801 13.1441 29.8012L12.6819 29.6105C12.6462 29.697 12.5622 29.75 12.4744 29.75V30.25ZM12.1997 30.196C12.2892 30.2325 12.3824 30.25 12.4744 30.25V29.75C12.446 29.75 12.417 29.7446 12.3887 29.7331L12.1997 30.196ZM11.8045 29.249C11.6525 29.6197 11.8291 30.0429 12.1988 30.1956L12.3896 29.7335C12.2748 29.686 12.2196 29.5545 12.2671 29.4387L11.8045 29.249ZM30.2118 10.8106C21.9451 14.4207 15.0641 21.3099 11.8045 29.2489L12.2671 29.4388C15.4746 21.6267 22.2573 14.83 30.4119 11.2688L30.2118 10.8106ZM31.1657 11.1849C31.0065 10.8182 30.5803 10.6509 30.2124 10.8103L30.4112 11.2691C30.5273 11.2188 30.6584 11.2719 30.707 11.384L31.1657 11.1849ZM27.0597 18.1967C27.0724 18.1771 27.0857 18.1646 27.0941 18.1577C27.1025 18.1508 27.1085 18.1476 27.1096 18.147C27.111 18.1463 27.1038 18.1501 27.0828 18.1558C27.0409 18.1674 26.9746 18.1787 26.8811 18.1879C26.696 18.2062 26.4425 18.2127 26.147 18.2127V18.7127C26.4452 18.7127 26.7193 18.7063 26.9301 18.6855C27.0347 18.6752 27.1335 18.6605 27.2156 18.6379C27.2567 18.6266 27.3012 18.6112 27.343 18.5892C27.3824 18.5684 27.4385 18.5317 27.4794 18.4685L27.0597 18.1967ZM29.7732 12.1856C29.5673 13.568 28.5774 15.8532 27.0597 18.1967L27.4794 18.4685C29.0113 16.1031 30.0462 13.7464 30.2677 12.2592L29.7732 12.1856ZM14.6521 26.6907C18.0192 20.6361 23.5881 15.4793 30.1256 12.4492L29.9153 11.9956C23.2844 15.069 17.6349 20.2984 14.2151 26.4477L14.6521 26.6907ZM24.7228 20.6477C19.3531 25.9033 15.4828 26.3141 14.4324 26.3192L14.4348 26.8192C15.6264 26.8134 19.6184 26.3433 25.0726 21.005L24.7228 20.6477ZM23.8639 19.8728C24.1753 20.0884 24.4538 20.2828 24.6196 20.4574C24.7035 20.5458 24.7311 20.6017 24.7369 20.6268C24.7369 20.6271 24.7457 20.6253 24.7229 20.6476L25.0725 21.005C25.2118 20.8687 25.266 20.6952 25.224 20.514C25.1878 20.3576 25.0858 20.2223 24.9822 20.1131C24.7727 19.8925 24.4434 19.6659 24.1485 19.4618L23.8639 19.8728ZM22.8901 18.4188C22.7757 18.5694 22.764 18.7409 22.8187 18.8963C22.8675 19.0348 22.9665 19.157 23.0687 19.2595C23.2745 19.4659 23.5833 19.6786 23.8639 19.8728L24.1485 19.4618C23.8541 19.2579 23.5893 19.0734 23.4228 18.9064C23.3388 18.8222 23.3021 18.7637 23.2903 18.7303C23.2845 18.7138 23.2876 18.7222 23.2882 18.7213L22.8901 18.4188ZM24.2513 18.1874C23.9475 18.1874 23.6671 18.1939 23.4496 18.215C23.3416 18.2255 23.2401 18.2403 23.1555 18.2628C23.1131 18.2741 23.0683 18.289 23.0263 18.3099C22.9865 18.3297 22.9326 18.3629 22.89 18.4189L23.2883 18.7212C23.266 18.7506 23.2446 18.7597 23.2487 18.7577C23.2506 18.7568 23.261 18.7522 23.2841 18.746C23.3304 18.7337 23.401 18.722 23.4979 18.7126C23.6901 18.694 23.9504 18.6874 24.2513 18.6874V18.1874ZM25.2088 18.2001C24.8821 18.1938 24.5514 18.1874 24.2513 18.1874V18.6874C24.5456 18.6874 24.8712 18.6937 25.1991 18.7001L25.2088 18.2001ZM26.147 18.2127C25.8572 18.2127 25.535 18.2065 25.2088 18.2001L25.1991 18.7001C25.5241 18.7064 25.8514 18.7127 26.147 18.7127V18.2127Z" fill="#6782A3"/>
</g>
</svg>
